X: 1549
T: On Kerre Demedim mi
C: ?
O: Turkey
F: http://compmusic.upf.edu/node/140
N: evic--karsilama--yuruksemai_ii--on_kerre--
N: makam= evic
N: form= karsilama
N: usul= yuruksemai_ii = 6/8
M: 6/8
L: 1/16
K: C _1/4B ^f ^c 
Q: 1/4=120
%%MIDI tuningsystem comma53
f2f2 f2f2 f2ff  | a4 g2f2 ^e2{f}ef  | \
w:  On  ker re  de me  |  dim  mi  sa na   | 
d4 ^3/4e2d2 g/f/g/a/g{a}f  | 
w:  sev me  do kuz   | 
f4 g2f2 ^e2{f}ef  | d4 ^3/4e2d2 g/f/g/a/g{a}f  | \
w:  yâr    |  sev me  do kuz   | 
f6=fe dcd2  | 
w:  yâr   SAZ  | 
d2e2 ^3/4f2g2 a4  | g2=f2 e2e3/2d/ d4  | \
w:  Se kiz de  se fâ   |  ye di de  ve *  fâ   | 
d4 =c2B2 A4  | d6{a}g^1/4f ed=cB  | 
w:  ol ma ya  zin  |  hâr    | 
A4 B2A2 G/F/G/A/GF  | F6zc d^ef2  | f2f2 f2f2 f2ff  | 
w:  ol ma ya  zin  |  hâr   SAZ  |  Al tı  i le  beş   | 
a4 g2f2 ^e2{f}ef  | d4 ^3/4e2d2 g/f/g/a/g{a}f  | \
w:  dört_ i le  hiç   |  ba şa  çı kıl  | 
f4 g2f2 ^e2{f}ef  | 
w:  maz    | 
d4 ^e2d2 g/f/g/a/g{a}f  | f6=fe dcd2  | \
w:  ba şa  çı kıl  |  maz   SAZ  | 
d2e2 ^3/4f2g2 a4  | g4 =f2e3/2d/ d4  | 
w:  Ü çün i ki sin   |  ter ke de *  gör   | 
d4 =c2B2 A4  | d6{a}g^1/4f ed=cB  | A4 B2A2 G/F/G/A/GF  | \
w:  tâ  ka la  bir   |  yâr    |  tâ  ka la  bir   | 
F4 ^E/F/G/A/B/A/G/F/ .F4  | 
w:  yâr   SAZ  | 
|


